symbols/web/mark_email_unread/materialsymbolsrounded/mark_email_unread_wght600grad200_20px.svg

<svg xmlns="http://www.w3.org/2000/svg" height="20" width="20"><path d="M3.479 17.479q-1.104 0-1.875-.781-.771-.781-.771-1.865V5.167q0-1.084.771-1.865.771-.781 1.875-.781h8q-.25.646-.291 1.323-.042.677.104 1.323H3.479v9.666h13.042V8.771q.75-.125 1.437-.479.688-.354 1.209-.875v7.416q0 1.084-.771 1.865-.771.781-1.875.781Zm0-12.312v9.666-9.666Zm12.354 1.979q-1.25 0-2.114-.865-.865-.864-.865-2.114t.865-2.115q.864-.864 2.114-.864t2.115.864q.864.865.864 2.115 0 1.25-.864 2.114-.865.865-2.115.865ZM10 9.354l2.729-1.729q.438.396.969.677.531.281 1.135.427l-4.145 2.563q-.334.208-.688.208-.354 0-.688-.208L3.479 7.604V5.167Z"/></svg>

<svg xmlns="http://www.w3.org/2000/svg" height="20" width="20"><path d="M3.479 17.479Q2.375 17.479 1.604 16.698Q0.833 15.917 0.833 14.833V5.167Q0.833 4.083 1.604 3.302Q2.375 2.521 3.479 2.521H11.479Q11.229 3.167 11.188 3.844Q11.146 4.521 11.292 5.167H3.479V14.833Q3.479 14.833 3.479 14.833Q3.479 14.833 3.479 14.833H16.521Q16.521 14.833 16.521 14.833Q16.521 14.833 16.521 14.833V8.771Q17.271 8.646 17.958 8.292Q18.646 7.938 19.167 7.417V14.833Q19.167 15.917 18.396 16.698Q17.625 17.479 16.521 17.479ZM3.479 5.167V14.833Q3.479 14.833 3.479 14.833Q3.479 14.833 3.479 14.833Q3.479 14.833 3.479 14.833Q3.479 14.833 3.479 14.833V5.167Q3.479 5.167 3.479 5.167Q3.479 5.167 3.479 5.167Q3.479 5.167 3.479 5.167Q3.479 5.167 3.479 5.167ZM15.833 7.146Q14.583 7.146 13.719 6.281Q12.854 5.417 12.854 4.167Q12.854 2.917 13.719 2.052Q14.583 1.188 15.833 1.188Q17.083 1.188 17.948 2.052Q18.812 2.917 18.812 4.167Q18.812 5.417 17.948 6.281Q17.083 7.146 15.833 7.146ZM10 9.354 12.729 7.625Q13.167 8.021 13.698 8.302Q14.229 8.583 14.833 8.729L10.688 11.292Q10.354 11.5 10 11.5Q9.646 11.5 9.312 11.292L3.479 7.604Q3.479 7.604 3.479 7.604Q3.479 7.604 3.479 7.604V5.167Q3.479 5.167 3.479 5.167Q3.479 5.167 3.479 5.167Z"/></svg>
